X: 111
T:Sally Gardens
R:Reel
M:4/4
L:1/8
Q:1/2=112
K:G
BA|:G2DG B2GB|dBeB dBAB|d2Bd egdB|AcBA GEDE|
G2DG B2GB|dBeB dBAB|d2Bd egdB|[1 AcBA G2DE:|[2 AcBA G2Bc|
|:dggf g2dg|g2bg ageg|eaag a2eg|a2bg ageg|
dggf g2de|g2bg ageg|d2Bd egdB|[1 AcBA G2Bc:|[2 AcBA G2|]
